X: 11599
T: Eel Pot Tavern, The
R: jig
M: 6/8
K: Adorian
|:A2A ABc|~B2A G2E|ABc BAG|e3 e2f|
g2g gfe|d2B GAB|cBA G2E|1 A3 A2E:|2 A3 A3||
|:e3 a3|gfe d2B|efg bag|a3 a2b|
g2g gfe|d2B GAB|cBA G2E|1 A3 A3:|2 A3 A2E||

